X:675
T:Trip to the Cottage
R:jig
Z:Transcribed by Dave Marshall
M:6/8
K:G
|: ~d3 ~B3|cBc AFD|DGG FGA|~B3 ABc|
~d3 ~B3|cBc AFD|DGG FGA| BGF G3 :|
|:gfe ~d3|edc Bcd|ecA dAG|FAG FED|
gfe ~d3|edc Bcd|efg eag| fdd d3:|
